X:1
T:Amor que me cautivas
T:Amor que me cautivas
T:Pavana
T:Thoinot Arbeau Trascrip. Nacho Lorenzo 
C:Thoinot Arbeau
%%score 1 2 3 4
L:1/8
Q:1/2=55
M:2/2
K:Bb
V:1 bass nm="Bombardino"
V:2 bass nm="Bombardino"
V:3 bass nm="Tuba en Fa"
V:4 bass nm="Tuba"
V:1
 C4 | C2 =B,2 C2 D2 | E4 E2 G2 | F2 E2 E2 D2 | !breath!!fermata!E4 C4 | C2 =B,2 C2 D2 | E4 E2 G2 | %7
 F2 E2 E2 D2 | !breath!!fermata!E4 E4 | D2 D2 C2 C2 | =B,4 _B,4 | A,B, C2 C2 =B,2 | %12
 !breath!!fermata!C4 E4 | D2 D2 C2 C2 | =B,4 _B,4 | A,B, C2 C2 =B,2 | !fermata!C4 z4 :| %17
V:2
 G,4 | G,2 G,2 G,2 B,2 | B,4 B,2 B,2 | A,2 B,2 C2 B,2 | !breath!!fermata!B,4 G,4 | %5
 G,2 G,2 G,2 B,2 | B,4 B,2 B,2 | A,2 B,2 C2 B,2 | !breath!!fermata!B,4 B,4 | B,2 B,2 G,2 _A,2 | %10
 G,4 G,4 | F,2 G,2 G,2 G,2 | !breath!!fermata!=E,4 _E,4 | B,2 B,2 G,2 _A,2 | G,4 G,4 | %15
 A,2 G,2 G,2 G,2 | !fermata!G,4 z4 :| %17
V:3
 E,4 | E,2 D,2 E,2 F,2 | G,4 G,2 E,2 | C,2 G,2 F,2 F,2 | !breath!!fermata!G,4 E,4 | %5
 E,2 D,2 E,2 F,2 | G,4 G,2 E,2 | C,2 G,2 F,2 F,2 | !breath!!fermata!G,4 G,4 | F,2 G,2 E,2 F,2 | %10
 D,4 E,4 | C,2 E,2 D,2 D,2 | !breath!!fermata!C,4 G,4 | F,2 G,2 E,2 F,2 | D,4 E,4 | %15
 C,2 E,2 E,2 D,2 | !fermata!C,4 z4 :| %17
V:4
 C,,4 | C,,2 G,,,2 C,,2 B,,,2 | E,,,4 E,,,2 E,,,2 | F,,,2 G,,,2 _A,,,2 B,,,2 | %4
 !breath!!fermata!E,,,4 C,,4 | C,,2 G,,,2 C,,2 B,,,2 | E,,,4 E,,,2 E,,,2 | %7
 F,,,2 G,,,2 _A,,,2 B,,,2 | !breath!!fermata!E,,,4 E,,4 | B,,,2 G,,,2 C,,2 F,,2 | G,,4 E,,4 | %11
 F,,2 C,,2 G,,2 G,,,2 | !breath!!fermata!C,,4 E,,4 | B,,,2 G,,,2 C,,2 F,,2 | G,,4 E,,4 | %15
 F,,2 C,,2 G,,2 G,,,2 | !fermata!C,,4 z4 :| %17

